flutter/assets/actions.svg

<svg xmlns="http://www.w3.org/2000/svg" width="32pt" height="32pt" style="isolation:isolate" viewBox="496.063 521.772 32 32"><path fill="none" d="M496.063 521.772h32v32h-32v-32Z"/><path d="m513.817 535.858.87-8.052c.136-1.26-.279-1.399-.927-.31l-6.856 11.532c-.216.363-.049.658.374.658h3.031l-.87 8.052c-.136 1.26.279 1.399.927.309l6.856-11.531c.216-.363.048-.658-.374-.658h-3.031Z"/></svg>

<?xml version="1.0" encoding="UTF-8" standalone="no"?>
<svg xmlns="http://www.w3.org/2000/svg" xmlns:xlink="http://www.w3.org/1999/xlink" style="isolation:isolate" viewBox="496.063 521.772 32 32" width="32pt" height="32pt"><g><path d=" M 496.063 521.772 L 528.063 521.772 L 528.063 553.772 L 496.063 553.772 L 496.063 521.772 Z " fill="none"/><path d=" M 513.817 535.858 L 514.687 527.806 C 514.823 526.546 514.408 526.407 513.76 527.496 L 506.904 539.028 C 506.688 539.391 506.855 539.686 507.278 539.686 L 510.309 539.686 L 509.439 547.738 C 509.303 548.998 509.718 549.137 510.366 548.047 L 517.222 536.516 C 517.438 536.153 517.27 535.858 516.848 535.858 L 513.817 535.858 Z " fill="rgb(0,0,0)"/></g></svg>
